X: 25579
T: Market Day, The
R: reel
M: 4/4
K: Dmajor
g/f/e|:d2 AG FD D/D/D|DFAg fdec|d2 AG FGAg|fdec d3 A:|
defg afed|cdef gcec|defg a2 fd|f/g/f ag fddA|
defg afed|cdef g2 fg|af g/f/e fdcA|B/c/d eg fdec||

